X:1
T:Title
%%score { ( 1 3 ) | ( 2 4 ) }
L:1/8
M:4/4
K:Eb
V:1 treble nm="Grand Piano"
V:3 treble 
V:2 bass 
V:4 bass 
V:1
 z4 z2[Q:1/4=100] E>F | G2 G>[FA] [GB]2 [Ge][Bd] | c2 e>c [GB]2 E>F | G2 G>[FA] [GB]2 [Ge]2 | %4
[M:9/8] d2 d- d/c/ [DB]2- [DB]E>F |[M:4/4] G2 G>[FA] [GB]2 [Ge][Bd] | z4 d4 | %7
 [Ge]GAB c2 [Af]>[Af] | e2 [Fd]>[Ad] [Ge]4 | [GB]2 [EG]>[GB] [Ge]4 | e2 c>e [GB]4 | %11
 [GB][GB][EG][FA] [GB]2 [Ge][Ge] | d2 d>c [DB]4 | [GB]2 [EG]>[GB] [Ge]4 | e2 c>e [GB]4 | %15
 [GB]GAB c2 [Af]>[Af] | e2 [Fd]>[Ad] [Ge]4 |] %17
V:2
 z4 z2 [E,G,]>[E,A,E] | [E,B,E]2 [E,B,E]>[E,B,] [E,B,]2 [E,B,][K:treble][G,E] | %2
 [A,EA]2 [A,CA]>[A,EA][K:bass] [E,E]2 [E,G,]>[E,A,E] | [E,B,E]2 [E,B,E]>[E,B,] [E,E]2 [E,B,]2 | %4
[M:9/8] [F,B,F]2 [F,=A,F]- [F,A,F]/[F,A,E]/ [B,,B,]2- [B,,B,][E,G,]>[E,A,E] | %5
[M:4/4] [E,B,E]2 [E,B,E]>[E,B,] [E,B,]2 [E,B,][K:treble][G,E] | z4 F2 z2 | %7
 [E,B,][E,B,E][F,B,D][G,B,E] [A,E]2 [F,C]>[F,C] | [B,G]2 [B,,B,]>[B,,B,] [E,B,]4 | %9
 [E,E]2 [E,B,]>[E,B,] [E,B,]4 | [A,CA]2 [A,EA]>[A,CA][K:bass] [E,B,]4 | %11
 [E,B,][E,B,][E,B,][E,B,] [E,B,]2 [E,B,][E,B,] | [F,B,F]2 [F,=A,F]>[F,A,E] [B,,B,]4 | %13
 [E,B,]2 [E,B,]>[E,B,] [E,B,]4 | [A,CA]2 [A,EA]>[A,CA][K:bass] [E,B,]4 | %15
 [E,E][E,B,E][F,B,D][G,B,E] [A,E]2 [F,C]>[F,C] | [B,G]2 [B,,B,]>[B,,B,] [E,B,]4 |] %17
V:3
 x8 | x8 | x8 | x8 |[M:9/8] x9 |[M:4/4] x8 | c2 f>e z2 A2 | x8 | x8 | x8 | x8 | x8 | x8 | x8 | x8 | %15
 x8 | x8 |] %17
V:4
 x8 | x7[K:treble] x | x4[K:bass] x4 | x8 |[M:9/8] x9 |[M:4/4] x7[K:treble] x | %6
 [A,EA]2 [=A,CF]>[A,CF] B,4 | x8 | x8 | x8 | x4[K:bass] x4 | x8 | x8 | x8 | x4[K:bass] x4 | x8 | %16
 x8 |] %17

